X:1
T: Keithmore
C:William Marshall
R:Strathspey
Q: 128
K:Eb
M:4/4
L:1/16
|:E3G B2G2 B2c2 G4|E3G B2G2 B2e2 G2E2|E3G B2G2 Bcde G4|CF3 F3G AGFE EDCB,|
E3G B2G2 B2c2 G4|E3G B2G2 B2e2 G2E2|E3G B2G2 Bcde G4|CF3 F3G AGFE EDCB,|
EFGA Bcde edcB e4|GBcd efga b2g2 e2B2|GBcd edcB cBAG E2G2|F2C2 F3E D2B,2 C2D2|
EFGA Bcde edcB e4|GBcd efga b2g2 e2B2|A,2c2 c2A,2 G,2B2 B2G,2|CF3 F3G AGFE EDCB,:|
